images/catalog/catalog-header/breadcrambs/breadcrambs-separator.svg

<svg width="8" height="11" viewBox="0 0 8 11" fill="none" xmlns="http://www.w3.org/2000/svg">
<path d="M6.78623 4.96875L2.03623 0.71875C1.78623 0.46875 1.28623 0.46875 0.911234 0.71875C0.536234 0.96875 0.661234 1.46875 0.911234 1.71875L5.03623 5.46875L1.03623 9.21875C0.786234 9.46875 0.786234 9.96875 1.03623 10.2188C1.03623 10.3438 1.41123 10.4688 1.53623 10.4688C1.66123 10.4688 1.91123 10.3438 2.03623 10.2188L6.78623 5.96875C7.16123 5.71875 7.16123 5.21875 6.78623 4.96875Z" fill="white"/>
</svg>

<svg xmlns="http://www.w3.org/2000/svg" width="8" height="11" fill="none"><path fill="#fff" d="M6.786 4.969 2.036.719c-.25-.25-.75-.25-1.125 0s-.25.75 0 1l4.125 3.75-4 3.75c-.25.25-.25.75 0 1 0 .125.375.25.5.25s.375-.125.5-.25l4.75-4.25a.585.585 0 0 0 0-1Z"/></svg>
